instagram-icon.svg

<svg id="eUQ0JNZCjre1" xmlns="http://www.w3.org/2000/svg" xmlns:xlink="http://www.w3.org/1999/xlink" viewBox="0 0 34 35" shape-rendering="geometricPrecision" text-rendering="geometricPrecision"><ellipse rx="13.789707" ry="13.962078" transform="translate(17.560207 18.012804)" fill="#f53838" stroke-width="0"/><path d="M22.25,17.3806c0,1.3924-.5532,2.7277-1.5377,3.7123s-2.32,1.5377-3.7123,1.5377c-1.3924,0-2.7278-.5532-3.7124-1.5377-.9845-.9846-1.5376-2.3199-1.5376-3.7123c0-.2993.0315-.5915.0857-.875h-1.83575v6.9947c0,.4865.39375.8803.88025.8803h12.2413c.2331-.0005.4566-.0934.6213-.2585s.2572-.3886.2572-.6218v-6.9947h-1.8358c.0543.2835.0858.5757.0858.875Zm-5.25,3.5c.4597-.0001.9149-.0908,1.3396-.2669s.8106-.434,1.1356-.7591c.325-.3252.5828-.7112.7586-1.136s.2663-.88.2662-1.3398c-.0002-.4597-.0908-.9149-.2669-1.3396s-.434-.8106-.7591-1.1356-.7112-.5828-1.136-.7586-.8801-.2663-1.3398-.2662c-.9285.0003-1.8189.3693-2.4752,1.026s-1.025,1.5473-1.0248,2.4758.3693,1.8188,1.026,2.4752s1.5473,1.025,2.4758,1.0248Zm4.2-7.175h2.0982c.1394,0,.2731-.0553.3719-.1537.0987-.0984.1544-.2319.1549-.3713v-2.0983c0-.1397-.0555-.2737-.1543-.3725-.0988-.0987-.2328-.1542-.3725-.1542h-2.0982c-.1397,0-.2737.0555-.3725.1542-.0988.0988-.1543.2328-.1543.3725v2.0983c.0018.2887.238.525.5268.525ZM17,0.580566c-4.4557,0-8.72883,1.769994-11.87944,4.920604s-4.920609,7.42373-4.920609,11.87943s1.769999,8.7288,4.920609,11.8794s7.42374,4.9206,11.87944,4.9206c2.2062,0,4.3908-.4346,6.429-1.2789c2.0383-.8442,3.8903-2.0817,5.4504-3.6417c1.56-1.5601,2.7975-3.4121,3.6417-5.4503.8443-2.0383,1.2789-4.2229,1.2789-6.4291s-.4346-4.3908-1.2789-6.4291c-.8442-2.03828-2.0817-3.8903-3.6417-5.45033-1.5601-1.56002-3.4121-2.7975-5.4504-3.64178C21.3908,1.01511,19.2062,0.580566,17,0.580566ZM25.75,24.1863c0,1.0693-.875,1.9443-1.9443,1.9443h-13.6115c-1.06925,0-1.94425-.875-1.94425-1.9443v-13.6115c0-1.06923.875-1.94423,1.94425-1.94423h13.6115c1.0693,0,1.9443.875,1.9443,1.94423v13.6115Z" fill="#fff"/></svg>

<svg width="34" height="35" viewBox="0 0 34 35" fill="none" xmlns="http://www.w3.org/2000/svg">
<path d="M22.25 17.3806C22.25 18.773 21.6968 20.1083 20.7123 21.0929C19.7277 22.0774 18.3923 22.6306 17 22.6306C15.6076 22.6306 14.2722 22.0774 13.2876 21.0929C12.3031 20.1083 11.75 18.773 11.75 17.3806C11.75 17.0813 11.7815 16.7891 11.8357 16.5056H9.99995V23.5003C9.99995 23.9868 10.3937 24.3806 10.8802 24.3806H23.1215C23.3546 24.3801 23.5781 24.2872 23.7428 24.1221C23.9075 23.9571 24 23.7335 24 23.5003V16.5056H22.1642C22.2185 16.7891 22.25 17.0813 22.25 17.3806ZM17 20.8806C17.4597 20.8805 17.9149 20.7898 18.3396 20.6137C18.7643 20.4377 19.1502 20.1797 19.4752 19.8546C19.8002 19.5294 20.058 19.1434 20.2338 18.7186C20.4096 18.2938 20.5001 17.8386 20.5 17.3788C20.4998 16.9191 20.4092 16.4639 20.2331 16.0392C20.0571 15.6145 19.7991 15.2286 19.474 14.9036C19.1488 14.5786 18.7628 14.3208 18.338 14.145C17.9132 13.9691 17.4579 13.8787 16.9982 13.8788C16.0697 13.8791 15.1793 14.2481 14.523 14.9048C13.8666 15.5615 13.498 16.4521 13.4982 17.3806C13.4984 18.3091 13.8675 19.1994 14.5242 19.8558C15.1809 20.5122 16.0715 20.8808 17 20.8806ZM21.2 13.7056H23.2982C23.4376 13.7056 23.5713 13.6503 23.6701 13.5519C23.7688 13.4535 23.8245 13.32 23.825 13.1806V11.0823C23.825 10.9426 23.7695 10.8086 23.6707 10.7098C23.5719 10.6111 23.4379 10.5556 23.2982 10.5556H21.2C21.0603 10.5556 20.9263 10.6111 20.8275 10.7098C20.7287 10.8086 20.6732 10.9426 20.6732 11.0823V13.1806C20.675 13.4693 20.9112 13.7056 21.2 13.7056ZM17 0.580566C12.5443 0.580566 8.27117 2.35056 5.12056 5.50117C1.96995 8.65178 0.199951 12.9249 0.199951 17.3806C0.199951 21.8362 1.96995 26.1094 5.12056 29.26C8.27117 32.4106 12.5443 34.1806 17 34.1806C19.2062 34.1806 21.3908 33.746 23.429 32.9017C25.4673 32.0575 27.3193 30.82 28.8794 29.26C30.4394 27.6999 31.6769 25.8479 32.5211 23.8097C33.3654 21.7714 33.8 19.5868 33.8 17.3806C33.8 15.1744 33.3654 12.9898 32.5211 10.9515C31.6769 8.91322 30.4394 7.0612 28.8794 5.50117C27.3193 3.94115 25.4673 2.70367 23.429 1.85939C21.3908 1.01511 19.2062 0.580566 17 0.580566ZM25.75 24.1863C25.75 25.2556 24.875 26.1306 23.8057 26.1306H10.1942C9.12495 26.1306 8.24995 25.2556 8.24995 24.1863V10.5748C8.24995 9.50557 9.12495 8.63057 10.1942 8.63057H23.8057C24.875 8.63057 25.75 9.50557 25.75 10.5748V24.1863Z" fill="white"/>
</svg>
